X:1
T:Benedictus - Handl
T:#
%%score 1 2 3
L:1/8
Q:1/4=216
M:none
K:F
V:1 treble nm="Soprano" snm="S"
V:2 treble nm="Alto" snm="A"
V:3 treble-8 nm="Tenor" snm="T"
V:1
"^Benedictus""^Jacob Handl\n(1550-1591)""^Luke 1: 68-79""^Chorus I" F8 (G8 | A8) A8 | A4 A8 A4 | %3
w: Be- ne\-|* di-|ctus Do- mi-|
 A4 G4 A4 (B4- | B2 A2 A8) G4 | A8 z4 A4- |[M:4/2] A4 A4 A4 A4 | (G6 A2 B4) A4 | z4 G4 A8 | %9
w: nus De- us Is\-|* * * ra-|el: qui\-|* a vi- si-|ta\- * * vit,|et fe-|
 A4 A4 A4 A4 | A8 A4 (F4 | G4) A4 G8 | A16 ||"^Chorus II" A12 A4 | A8 A4 A4- | A4 A4 A4 B4- | %16
w: cit re- dem- pti-|o- nem ple\-|* bi su-|ae.|Et e-|re- xit cor\-|* nu sa- lu\-|
 B4 A4 G8 | A8 z4 G4 | G4 G4 A8 | G4 ^F6 F2 A4 | B16 | A16 ||"^Chorus I" z4 F8 E4 | F4 F8 F4 | %24
w: * tis no-|bis: in|do- mo Da-|vid pu- e- ri|su-|i.|Si- cut|lo- cu- tus|
 E8 z4 F4 | B4 A4 G8 | ^F8 z4 A4 | A4 A6 A2 A4 | A4 G4 A4 B4 | A8 G8 | A16 ||"^Chorus II" A8 A8 | %32
w: est per|os san- cto-|rum: qui|a sae- cu- lo|sunt, pro- phe- ta-|rum e-|ius.|Sa- lu-|
 A4 A8 A4 | A4 G8 G4 | A8 G8 | z4 A8 A4 | A8 A4 A4- | A4 A4 A4 ^F4 | G4 A4 G8 | A16 || %40
w: tem ex i-|ni- mi- cis|no- stris:|et de|ma- nu o\-|* mni- um qui|o- de- runt|nos.|
"^Chorus I" A8 G6 G2 | G4 ^F4 G4 A4- | A4 A4 A4 G4 | A4 G4 F6 F2 | E4 F8 E4 | z4 ^F4 G4 G4 | %46
w: Ad fa- ci-|en- dam mi- se\-|* ri- cor- di-|am cum pa- tri-|bus no- stris:|et me- mo-|
 A8 G4 A4- | A4 G4 B8 | A8 d8- | d4 c4 B8 | A16 ||"^Chorus II" A8 G4 A4- | A4 A4 z4 A4 | G4 A8 A4 | %54
w: ra- ri te\-|* sta- men-|ti su\-|* i san-|cti.|Jus- ju- ran\-|* dum, quod|ju- ra- vit|
 z4 A4 G4 G4 | G4 F8 E4 | F8 E8 | z4 A8 B4 | A4 F4 G8 | A16 ||"^Chorus I" F8 G8 | A4 A4 A8 | %62
w: ad Ab- ra-|ham pa- trem|no- strum:|da- tu-|rum se no-|bis.|Ut si-|ne ti- mo-|
 A4 A4 A4 A4 | B4 B8 A4 | G8 B4 A4 | G8 ^F4 G4 | B4 (A6 G2 G4) | A8 z4 A4- | A4 A4 G8 | F8 G8 | %70
w: re, de ma- nu|i- ni- mi-|co- rum no-|stro- rum li-|be- ra\- * *|ti: ser\-|* vi- a-|mus il-|
 A16 ||"^Chorus II" A8 A8 | A4 B8 A4 | z4 A4 A4 B4- | B4 B4 A4 G4- | G4 ^F4 G8 | A8 z4 G4- | %77
w: li.|In san-|cti- ta- te|et ju- sti\-|* ti- a co\-|* ram i-|pso: o\-|
 G4 G4 G4 G4 | A4 B4 G8 | A16 ||"^Chorus I" A8 G4 A4- | A4 A4 z4 A4 | c8 =B8 | d4 d8 ^c4 | %84
w: * mni- bus di-|e- bus no-|stris.|Et tu pu\-|* er, Pro-|phe- ta|Al- tis- si-|
 d4 c4 A4 G4 | A8 z4 G4 | A8 G4 ^F4- | F4 G4 z4 G4 | G4 A6 A2 A4 | G6 G2 G4 G4 | A8 G4 F4- | %91
w: mi vo- ca- be-|ris: prae-|i- bis e\-|* nim an-|te fa- ci- em|Do- mi- ni pa-|ra- re vi\-|
 F4 E4 F8 | E16 ||"^Chorus II" F8 (G8 | A8) A8 | A4 A8 A4 | A4 A4 A8 | A4 (G6 A2 B4- | B4) A8 G4 | %99
w: * as e-|ius.|Ad dan\-|* dam|sci- en- ti-|am sa- lu-|tis ple\- * *|* bi e-|
 A8 z4 A4- | A4 A4 A4 A4 | A8 A4 A4 | A4 A8 F4 | (G8 A8) | G16 | A16 ||"^Chorus I" A8 G6 G2 | %107
w: ius: in|* re- mis- si-|o- nem pec-|ca- to- rum|e\- *|o-|rum.|Per vi- sce-|
 G4 A4 B6 B2 | B4 A4 G8 | ^F8 G8 | A8 G8 | z4 A4 A4 A4 | B4 A4 G4 G4 | A12 f4- | f4 e8 d4- | %115
w: ra mi- se- ri-|cor- di- ae|De- i|no- stri:|in qui- bus|vi- si- ta- vit|nos o\-|* ri- ens|
 d4 ^c4 d8 | ^c16 ||"^Chorus II" c8 (B8 | A8) A4 A4- | A4 G4 z4 F4- | F4 E4 E4 E4- | E4 E4 E8 | %122
w: * ex al-|to.|Il- lu\-|* mi- na\-|* re his,|* qui in te\-|* ne- bris,|
 z4 F8 E4 | E4 E8 E4 | F8 E8 | z4 ^F4 G4 G4 | G4 G4 A8 | G4 ^F8 G4 | z4 A8 F4 | (G8 A8) | G8 A8 | %131
w: et um-|bra mor- tis|se- dent:|ad di- ri-|gen- dos pe-|des no- stros|in vi-|am *|pa- cis,|
 z4[Q:1/4=200] A4 A4 A4 | B16 | A16 |] %134
w: in vi- am|pa-|cis.|
V:2
 C8 (E8 | F8) F8 | E4 F8 F4 | F4 E4 F4 F4- | F4 F4 (D6 E2 | F8) z4 F4- |[M:4/2] F4 F4 F4 F4 | %7
w: Be- ne\-|* di-|ctus Do- mi-|nus De- us Is\-|* ra- el: *|* qui\-|* a vi- si-|
 D12 D4 | z4 D4 F8 | F4 F4 F4 F4 | F8 D8 | E4 F8 E4 | F16 || F12 F4 | F8 F4 F4- | F4 F4 F4 F4- | %16
w: ta- vit,|et fe-|cit re- dem- pti-|o- nem|ple- bi su-|ae.|Et e-|re- xit cor\-|* nu sa- lu\-|
 F4 F4 D8 | F8 z4 E4 | E4 E4 F8 | E4 D6 D2 D4 | F16 | F16 || C8 C8 | C4 D8 D4 | ^C8 z4 D4 | %25
w: * tis no-|bis: in|do- mo Da-|vid pu- e- ri|su-|i.|Si- cut|lo- cu- tus|est per|
 D4 D4 D8 | D8 z4 F4 | E4 F6 F2 E4 | F4 D4 F4 F4- | F4 F8 E4 | F16 || F8 F8 | F4 F8 F4 | F4 E8 E4 | %34
w: os san- cto-|rum: qui|a sae- cu- lo|sunt, pro- phe- ta\-|* rum e-|ius.|Sa- lu-|tem ex i-|ni- mi- cis|
 F8 E8 | z4 F8 F4 | F8 F4 F4- | F4 F4 E4 D4 | E4 F8 E4 | F16 || F8 E6 E2 | E4 D4 D4 F4- | %42
w: no- stris:|et de|ma- nu o\-|* mni- um qui|o- de- runt|nos.|Ad fa- ci-|en- dam mi- se\-|
 F4 F4 F4 D4 | F4 E4 D6 D2 | ^C4 D8 C4 | z4 D4 E4 E4 | F8 E4 F4- | F4 D4 G8 | F8 F8 | F4 (F8 E4) | %50
w: * ri- cor- di-|am cum pa- tri-|bus no- stris:|et me- mo-|ra- ri te\-|* sta- men-|ti su-|i san\- *|
 F16 || F8 E4 F4- | F4 F4 z4 F4 | E4 F8 F4 | z4 F4 E4 E4 | E4 D8 ^C4 | D8 ^C8 | z4 E8 G4 | %58
w: cti.|Jus- ju- ran\-|* dum, quod|ju- ra- vit|ad Ab- ra-|ham pa- trem|no- strum:|da- tu-|
 E4 D8 E4 | F16 || C8 E8 | F4 F4 E8 | F4 E4 E4 E4 | G4 F8 F4 | D8 D4 D4 | D8 D8 | D8 D4 E4 | %67
w: rum se no-|bis.|Ut si-|ne ti- mo-|re, de ma- nu|i- ni- mi-|co- rum no-|stro- rum|li- be- ra-|
 F8 z4 F4- | F4 E4 E8 | D4 (F8 E4) | F16 || F8 F8 | F4 F8 F4 | z4 F4 F4 F4- | F4 F4 F4 D4- | %75
w: ti: ser\-|* vi- a-|mus il\- *|li.|In san-|cti- ta- te|et ju- sti\-|* ti- a co\-|
 D4 D4 D8 | F8 z4 E4- | E4 E4 E4 E4 | F4 F8 E4 | F16 || F8 E4 F4- | F4 F4 z4 F4 | G8 G8 | %83
w: * ram i-|pso: o\-|* mni- bus di-|e- bus no-|stris.|Et tu pu\-|* er, Pro-|phe- ta|
 A8 A6 A2 | F4 F4 F4 D4 | F8 z4 E4 | F8 E4 D4- | D4 E4 z4 E4 | D4 F6 F2 F4 | E6 E2 E4 E4 | %90
w: Al- tis- si-|mi vo- ca- be-|ris: prae-|i- bis e\-|* nim an-|te fa- ci- em|Do- mi- ni pa-|
 F8 E4 D4- | D4 ^C4 D8 | ^C16 || =C8 (E8 | F8) F8 | F4 F8 F4 | F4 F4 F8 | F4 (E8 G4- | G4) E4 D8 | %99
w: ra- re vi\-|* as e-|ius.|Ad dan\-|* dam|sci- en- ti-|am sa- lu-|tis ple\- *|* bi e-|
 E8 z4 F4- | F4 F4 D4 E4 | F8 E4 F4- | F4 F4 F8 | E8 F4 (F4- | F4 E2 D2 E8) | F16 || F8 E6 E2 | %107
w: ius: in|* re- mis- si-|o- nem pec\-|* ca- to-|rum e- o\-||rum.|Per vi- sce-|
 E4 F4 G6 G2 | G4 F4 E8 | D8 E8 | F8 E8 | z4 F4 F4 F4 | F4 F4 D4 E4 | F12 A4- | A4 A4 A8 | %115
w: ra mi- se- ri-|cor- di- ae|De- i|no- stri:|in qui- bus|vi- si- ta- vit|nos o\-|* ri- ens|
 A4 (A8 G4) | A16 || A8 (G8 | E8) F4 F4- | F4 E4 z4 D4- | D4 ^C4 C4 C4- | C4 ^C4 C8 | z4 D8 ^C4 | %123
w: ex al\- *|to.|Il- lu\-|* mi- na\-|* re his,|* qui in te\-|* ne- bris,|et um-|
 ^C4 C8 C4 | D8 ^C8 | z4 D4 E4 E4 | E4 E4 F8 | E4 D8 E4 | z4 F8 C4 | (D6 E2 F4) F4- | F4 E4 F8 | %131
w: bra mor- tis|se- dent:|ad di- ri-|gen- dos pe-|des no- stros|in vi-|am * * pa\-|* * cis,|
 z4 F4 F4 F4 | F16 | F16 |] %134
w: in vi- am|pa-|cis.|
V:3
 A8 c8 | (c8 d8) | c4 c8 c4 | c4 c4 c4 (d4- | d2 c2 c8) =B4 | c8 z4 c4- | %6
w: Be- ne-|di\- *|ctus Do- mi-|nus De- us Is\-|* * * ra-|el: qui\-|
[M:4/2][K:treble-8] c4 c4 c4 c4 | (B6 A2 G4) ^F4 | z4 =B4 c8 | c4 c4 c4 c4 | d8 A8 | c8 c4 c4 | %12
w: * a vi- si-|ta\- * * vit,|et fe-|cit re- dem- pti-|o- nem|ple- bi su-|
 c16 || c12 c4 | c8 c4 c4- | c4 c4 c4 d4- | d4 c4 =B8 | c8 z4 c4 | c4 c4 c8 | c4 A6 A2 A4 | d16 | %21
w: ae.|Et e-|re- xit cor\-|* nu sa- lu\-|* tis no-|bis: in|do- mo Da-|vid pu- e- ri|su-|
 c16 || F8 G8 | A8 A4 A4 | A8 z4 A4 | G4 A4 B8 | A8 z4 d4 | ^c4 d6 d2 c4 | d4 =B4 c4 d4 | c8 c8 | %30
w: i.|Si- cut|lo- cu- tus|est per|os san- cto-|rum: qui|a sae- cu- lo|sunt, pro- phe- ta-|rum e-|
 c16 || c8 c8 | c4 c8 c4 | c4 c8 c4 | c8 c8 | z4 c8 c4 | c8 c4 d4- | d4 d4 c4 A4 | c4 c4 c8 | %39
w: ius.|Sa- lu-|tem ex i-|ni- mi- cis|no- stris:|et de|ma- nu o\-|* mni- um qui|o- de- runt|
 c16 || c8 c6 c2 | c4 A4 =B4 c4- | c4 c4 c4 =B4 | c4 c4 A6 A2 | A4 A8 A4 | z4 A4 c4 c4 | %46
w: nos.|Ad fa- ci-|en- dam mi- se\-|* ri- cor- di-|am cum pa- tri-|bus no- stris:|et me- mo-|
 c8 c4 c4- | c4 B4 _e8 | c8 B8 | F8 G8 | c16 || c8 c4 c4- | c4 c4 z4 c4 | c4 c8 c4 | z4 c4 c4 c4 | %55
w: ra- ri te\-|* sta- men-|ti su-|i san-|cti.|Jus- ju- ran\-|* dum, quod|ju- ra- vit|ad Ab- ra-|
 c4 A8 A4 | A8 A8 | z4 ^c8 d4 | ^c4 d4 =B8 | c16 || A8 c8 | c4 d4 ^c8 | d4 ^c4 c4 c4 | d4 d8 =c4 | %64
w: ham pa- trem|no- strum:|da- tu-|rum se no-|bis.|Ut si-|ne ti- mo-|re, de ma- nu|i- ni- mi-|
 B8 G4 A4 | B8 A4 (B2 A2) | G4 A4 =B8 | c8 z4 c4- | c4 c4 c8 | A8 c8 | c16 || c8 c8 | c4 d8 c4 | %73
w: co- rum no-|stro- rum li\- *|li- be- ra-|ti: ser\-|* vi- a-|mus il-|li.|In san-|cti- ta- te|
 z4 c4 c4 d4- | d4 d4 c4 B4- | B4 A4 =B8 | c8 z4 c4- | c4 c4 c4 c4 | c4 d4 c8 | c16 || c8 c4 c4- | %81
w: et ju- sti\-|* ti- a co\-|* ram i-|pso: o\-|* mni- bus di-|e- bus no-|stris.|Et tu pu\-|
 c4 c4 z4 c4 | e8 d8 | f8 e6 e2 | d4 A6 c4 =B2 | c8 z4 c4 | c8 c4 A4- | A4 c4 z4 c4 | %88
w: * er, Pro-|phe- ta|Al- tis- si-|mi vo- ca- be-|ris: prae-|i- bis e\-|* nim an-|
 =B4 c6 c2 c4 | c6 c2 c4 c4 | c8 c4 A4- | A4 A4 A8 | A16 || A8 c8- | c8 c8 | c4 c8 c4 | c4 c4 c8 | %97
w: te fa- ci- em|Do- mi- ni pa-|ra- re vi\-|* as e-|ius.|Ad dan\-|* dam|sci- en- ti-|am sa- lu-|
 c4 (c8 d4- | d4) ^c4 d8 | ^c8 z4 d4- | d4 d4 f4 e4 | d8 ^c4 d4- | d4 d4 =c8 | c12 c4 | c16 | %105
w: tis ple\- *|* bi e-|ius: in|* re- mis- si-|o- nem pec\-|* ca- to-|rum e-|o-|
 c16 || c8 c6 c2 | c4 c4 _e6 e2 | _e4 c4 c8 | A8 c8 | c8 c8 | z4 c4 c4 c4 | d4 c4 =B4 c4 | c8 d8- | %114
w: rum.|Per vi- sce-|ra mi- se- ri-|cor- di- ae|De- i|no- stri:|in qui- bus|vi- si- ta- vit|nos o\-|
 d4 e4 f8 | e8 d8 | e16 || f8 (d8 | ^c8) d4 =c4- | c4 c4 z4 A4- | A4 A4 A4 A4- | A4 A4 A8 | %122
w: * ri- ens|ex al-|to.|Il- lu\-|* mi- na\-|* re his,|* qui in te\-|* ne- bris,|
 z4 A8 A4 | A4 A8 A4 | A8 A8 | z4 A4 c4 c4 | c4 c4 c8 | c4 A8 c4 | z4 c8 c4- | c4 =B4 c8- | c8 c8 | %131
w: et um-|bra mor- tis|se- dent:|ad di- ri-|gen- dos pe-|des no- stros|in vi\-|* am pa\-|* cis,|
 z4 c4 c4 c4 | d16 | c16 |] %134
w: in vi- am|pa-|cis.|

